X: 6964
T: Chez Seychelles
R: mazurka
M: 3/4
K: Gmajor
|:g/ g>f|e2 e>f g>f|e2 e>f g>a|b2 b>a g>f|e2 e>f g>f|
e2 e>f g>f|e2 e>d B>c|d>e d>c B<A|G2 G3/2:|
|:A/ B>c|d2 g>d b>d|(3aba g2 g>d|e>g e>d c>B|A2 A>B d>e|f2 a>f a>f|
[1 (3gag f2 f>e|d>e f>e d>c|B2 B3/2:|2 (3gag f2 e2|(3fgf e>d ^c>d|G2- G3/2||

